!!!!SEGMENT: pl-kk--kk-i-519--001_lachner-ignaz--offertorium-alleluia-bog-prawdziwy.krn
!!!cenid: 18xx:1350
!!!COM: Lachner, Ignaz
!!!COM-rismid: pe64574
!!!CDT: 1807/09/11-1895/02/24
!!!CNT: German
!!!OTL: Offertorium - Alleluia Bóg prawdziwy
!!!PDT:
!!!AGN: Sacred
!!!SMS-siglum: PL-Kk
!!!SMS-shelfmark: Kk.I.519
!!!SMS-shelfwork: 001 W
!!!SMS-variant:
!!!SMS-altvar:
!!!NIFC-rismid: 1001139228
!!!URL-scan: http://repozytorium.nifc.pl/skany/pl-kk-nut--i-519
!!!ONB-nifc: UWAGA: Offertorium w języku polskim, zakres skanów 0009-0016
!!!AIN: 1 alto 1 bass 1 soprn 1 tenor
!!!key:
**kern	**text	**dynam	**kern	**text	**dynam	**kern	**text	**kern	**text
*part4	*part4	*part4	*part3	*part3	*part3	*part2	*part2	*part1	*part1
*staff4	*staff4	*	*staff3	*staff3	*	*staff2	*staff2	*staff1	*staff1
*Ibass	*	*	*Itenor	*	*	*Ialto	*	*Isoprn	*
*I"Basso.	*	*	*I"Tenor.	*	*	*I"Alto.	*	*I"Soprano	*
*I'B	*	*	*I'T	*	*	*I'A	*	*I'S	*
*clefF4	*	*	*clefC4	*	*	*clefC3	*	*clefC1	*
*k[]	*	*	*k[]	*	*	*k[]	*	*k[]	*
*C:	*	*	*C:	*	*	*C:	*	*C:	*
*M4/4	*	*	*M4/4	*	*	*M4/4	*	*M4/4	*
*met(c)	*	*	*met(c)	*	*	*met(c)	*	*met(c)	*
=1	=1	=1	=1	=1	=1	=1	=1	=1	=1
*2\right	*	*	*2\right	*	*	*2\right	*	*2\right	*
!LO:TX:t=P:problem=w źródle oznaczenie metryczne C z kropką; nie zakodowano, ponieważ się nie wyświetlało	!	!	!LO:TX:t=P:problem=w źródle oznaczenie metryczne C z kropką; nie zakodowano, ponieważ się nie wyświetlało	!	!	!LO:TX:t=P:problem=w źródle oznaczenie metryczne C z kropką; nie zakodowano, ponieważ się nie wyświetlało	!	!LO:TX:t=P:problem=w źródle oznaczenie metryczne C z kropką; nie zakodowano, ponieważ się nie wyświetlało	!
!LO:TX:b:i:t=Moderato.	!	!	!LO:TX:b:i:t=Moderato.	!	!	!LO:TX:b:i:t=Moderato.	!	!LO:TX:b:i:t=Moderato.	!
!LO:TX:a:t=P:problem=w źródle "Moderato." zapisane przed pierwszym taktem, pod pięciolinią	!	!	!LO:TX:a:t=P:problem=w źródle "Moderato." zapisane przed pierwszym taktem, pod pięciolinią	!	!	!LO:TX:a:t=P:problem=w źródle "Moderato." zapisane przed pierwszym taktem, pod pięciolinią	!	!LO:TX:a:t=P:problem=w źródle "Moderato." zapisane przed pierwszym taktem, pod pięciolinią	!
4C/	Al-	.	4c\	Al-	.	4e\	Al-	4g\	Al-
4C/	-le-	.	4c\	-le-	.	4e\	-le-	4g\	-le-
4C/	-lu-	.	4c\	-lu-	.	4e\	-lu-	4g\	-lu-
4C/	-ia	.	4c\	-ia	.	4e\	-ia	4g\	-ia
=2	=2	=2	=2	=2	=2	=2	=2	=2	=2
4c\	Bőg	.	4e\	Bóg	.	4g\	Bőg	4cc\	Bőg
4C/	przed-	.	4e\	przed-	.	4g\	praw-	4cc\	przed-
4C/	-wiecz-	.	4e\	-wiecz-	.	4g\	-dzi-	4cc\	-wie-
4C/	-ny	.	4e\	-ny	.	4g\	-wy	4cc\	-czny
=3	=3	=3	=3	=3	=3	=3	=3	=3	=3
4G\	Je-	.	4B\	Je-	.	4g\	Je-	4dd\	Je-
4G\	-zus	.	4B\	-zus	.	4g\	-zus	4dd\	-zus
4G\	z_Gro-	.	4B\	z_Gro-	.	4g\	z_Gro-	4dd\	z_Gro-
4G\	-bu	.	4B\	-bu	.	4g\	-bu	4dd\	-bu
=4	=4	=4	=4	=4	=4	=4	=4	=4	=4
!	!	!	!LO:SIC:s=4B	!	!	!	!	!	!
4E\	po-	.	4c\	po-	.	4g#X\	po-	4ee\	po-
!	!	!	!LO:SIC:s=4B	!	!	!	!	!	!
4E\	-wstał	.	4c\	-wstał	.	4g#\	-wstał	4ee\	-wstał
!	!	!	!LO:SIC:s=4c	!	!	!	!	!	!
4A\	ży-	.	4d\	ży-	.	4a\	ży-	4ee\	ży-
!	!	!	!LO:SIC:s=4c	!	!	!	!	!	!
4A\	-wy	.	4d\	-wy	.	4a\	-wy	4ee\	-wy
!LO:LB:g=original	!	!	!	!	!	!	!	!	!
=5	=5	=5	=5	=5	=5	=5	=5	=5	=5
!	!	!	!	!	!LO:DY:b:t=fo	!	!	!	!
4F\	prze-	.	4c\	prze-	f	4a\	prze-	4ff\	prze-
4F\	-zeń	.	4c\	-zeń	.	4a\	-zeń	4ff\	-zeń
!	!	!	!LO:LB:g=original	!	!	!	!	!	!
4C/	Pie-	.	4c\	pie-	.	4gn\	pie-	4ee\	pie-
4C/	-kło	.	4c\	-kło	.	4g\	-kło	4ee\	-kło
!	!	!	!	!	!	!LO:LB:g=original	!	!LO:LB:g=original	!
=6	=6	=6	=6	=6	=6	=6	=6	=6	=6
4G\	za-	.	4B\	za-	.	4g\	za-	4dd\	za-
4G\	-wsty-	.	4B\	-wsty-	.	4g\	-wsty-	4dd\	-wsty-
4E\	-dzo-	.	4B\	-dzo-	.	4g\	-dzo-	4dd\	-dzo-
4E\	-ne	.	4B\	-ne	.	4g\	-ne	4ee\	-ne
=7	=7	=7	=7	=7	=7	=7	=7	=7	=7
4A\	Du-	.	4c\	Du-	.	2a\	wy-	4cc\	Du-
4A\	-sze	.	4c\	-sze	.	.	.	4cc\	-sze
4A\	z_nie-	.	4c\	z_nie-	.	2f#X\	-zwo-	4dd\	z_nie-
4A\	-go	.	4c\	-go	.	.	.	4dd\	-go
=8	=8	=8	=8	=8	=8	=8	=8	=8	=8
4G\	wy-	.	4B\	wy-	.	2g\	-lo-	4dd\	wy-
4G\	-zwo-	.	4B\	-zwo-	.	.	.	4dd\	-zwo-
4G\	-lo-	.	4B\	-lo-	.	2g;\	-ne.	4dd\	-lo-
4G;\	-ne.	.	4B;\	-ne.	.	.	.	4dd;\	-ne.
=9||	=9||	=9||	=9||	=9||	=9||	=9||	=9||	=9||	=9||
!LO:TX:a:t=3.	!	!	!	!	!	!	!	!LO:TX:a:t=2	!
0r	.	.	1r	.	.	4.g\	O-	0r	.
.	.	.	.	.	.	8g\	-tworz-	.	.
!	!	!	!LO:TX:a:t=1.	!	!	!	!	!	!
.	.	.	.	.	.	4g\	-cie	.	.
.	.	.	.	.	.	8a\L	się	.	.
.	.	.	.	.	.	8b\J	.	.	.
=10	=10	=10	=10	=10	=10	=10	=10	=10	=10
.	.	.	4.c\	O-	.	4cc\	Bra-	.	.
.	.	.	.	.	.	4cc\	-my	.	.
.	.	.	8c\	-tworz-	.	.	.	.	.
.	.	.	8c\	-cie	.	4cc\	Nie-	.	.
.	.	.	8c\	się	.	.	.	.	.
.	.	.	8d\	bra-	.	4b\	-ba	.	.
.	.	.	8e\	-my	.	.	.	.	.
!	!	!	!LO:LB:g=original	!	!	!	!	!	!
=11	=11	=11	=11	=11	=11	=11	=11	=11	=11
1r	.	.	4.f\	Pa-	.	4a\	Pa-	4.cc\	Pa-
.	.	.	.	.	.	4a\	-na	.	.
.	.	.	8f\	-na	.	.	.	8cc\	-na
.	.	.	4f\	niech	.	4a\	niech	4cc\	niech
.	.	.	4e\	wi-	.	4g\	wi-	8dd\L	wi-
.	.	.	.	.	.	.	.	8ee\J	.
!	!	!	!	!	!	!LO:LB:g=original	!	!	!
=12	=12	=12	=12	=12	=12	=12	=12	=12	=12
!	!	!LO:DY:rj	!	!	!	!	!	!	!
!	!	!LO:DY:b	!	!	!	!	!	!	!
4.D\	Brzmi	f	2.d\	-ta-	.	2.f\	-ta-	2.ff\	-ta-
8D\	a-	.	.	.	.	.	.	.	.
4D\	-nio-	.	.	.	.	.	.	.	.
8E\L	-łow	.	4c\	-my	.	4g\	-my,	4ee\	-my
8F\J	.	.	.	.	.	.	.	.	.
!LO:LB:g=original	!	!	!	!	!	!	!	!	!
=13	=13	=13	=13	=13	=13	=13	=13	=13	=13
4G\	Chőr	.	4B\	brzmi	.	4g\	brzmi	4dd\	brzmi
4G\	swie-	.	4B\	a-	.	4g\	a-	4dd\	a-
4G\	-cą-	.	8B\	-ni-	.	8g\	-nio-	8dd\	-nio-
.	.	.	8B\	-łow	.	8g\	-łow	8dd\	-łow
!	!	!	!LO:SIC:l:s=Chór	!	!	!	!	!LO:SIC:l:s=Chór	!
4F\	-cy	.	8c\	Chur	.	8g\	Chór	8ee\	Chur
.	.	.	8d\	swie-	.	8g\	swie-	8ff\	swię-
!	!	!	!	!	!	!	!	!LO:LB:g=original	!
=14	=14	=14	=14	=14	=14	=14	=14	=14	=14
4.E\	Chri-	.	2.e\	-cą-	.	2.g\	-cą-	2.gg\	-cą-
8E\	-stu-	.	.	.	.	.	.	.	.
4E\	-so-	.	.	.	.	.	.	.	.
8F\L	-wi	.	4d\	-cy	.	8a\L	-cy,	4ff\	-cy
8G\J	.	.	.	.	.	8b\J	.	.	.
=15	=15	=15	=15	=15	=15	=15	=15	=15	=15
(>4A\	przod-	.	4c\	Chry-	.	4cc\	Chri-	4ee\	Chri-
4E\)	.	.	4c\	-stu-	.	4g\	-stu-	4ee\	-stu-
(>4F\	.	.	4A\	-so-	.	4a\	-so-	4dd\	-so-
4F#X\)	-ku-	.	4e\	-wi	.	4a\	-wi	4cc\	-wi
=16	=16	=16	=16	=16	=16	=16	=16	=16	=16
4G\	-ią-	.	4e\	przod-	.	8g\	przod-	8cc\	przod-
.	.	.	.	.	.	8g\	-ku-	8cc\	-ku-
4G\	-cy.	.	4d\	-ku-	.	8g\	-ią-	8b\	-ią-
.	.	.	.	.	.	8g\	-cy	8b\	-cy
!	!	!	!LO:LB:g=original	!	!	!	!	!	!
2r	.	.	4d\	-ią-	.	2r	.	2r	.
.	.	.	4d\	-cy,	.	.	.	.	.
!	!	!	!	!	!	!LO:LB:g=original	!	!	!
=17	=17	=17	=17	=17	=17	=17	=17	=17	=17
4.c\	U-	.	4.d\	U-	.	4.f#X\	U-	4.dd\	U-
8c\	-cznio-	.	8d\	-cznio-	.	8f#\	-cznio-	8dd\	-cznio-
4B\	-wie	.	8d\	-wie	.	8g\	-wie	8dd\	-wie
.	.	.	8d\	Pań-	.	8g\	Pan-	8dd\	Pan-
4A\	ko-	.	8d\	-scy	.	8a\	-scy	8dd\	-scy
.	.	.	8d\	ko-	.	8a\	ko-	8dd\	Ko-
=18	=18	=18	=18	=18	=18	=18	=18	=18	=18
4G\	-cha-	.	2d\	-cha-	.	4b\	-cha-	4dd\	-cha-
4B\	-ni	.	.	.	.	4g\	-ni,	4dd\	-ni
2r	.	.	2d\	-ni,	.	2r	.	2r	.
!LO:LB:g=original	!	!	!	!	!	!	!	!	!
=19	=19	=19	=19	=19	=19	=19	=19	=19	=19
4.c\	ła-	.	4.d\	no-	.	4.f#X\	no-	4.dd\	no-
8c\	-ską	.	8d\	-wą	.	8f#\	-wą	8dd\	-wą
4B\	da-	.	8d\	Ła-	.	8g\	Ła-	8dd\	Ła-
.	.	.	8d\	-ską	.	8g\	-ską	8dd\	-ską
!	!	!	!	!	!	!	!	!LO:LB:g=original	!
4A\	-ro-	.	8d\	da-	.	8a\	da-	8dd\	da-
.	.	.	8d\	-ro-	.	8a\	-ro-	8dd\	-ro-
=20	=20	=20	=20	=20	=20	=20	=20	=20	=20
4G\	-wa-	.	4d\	-wa-	.	4b\	-wa-	4dd\	-wa-
4B\	-ni	.	4d\	-ni,	.	4g\	-ni	4b\	-ni
!	!	!	!	!	!LO:DY:b	!	!	!	!
.	.	.	.	.	f	.	.	.	.
2r	.	.	4d\	przy-	.	2r	.	4dd\	przy-
.	.	.	8d\	-ie-	.	.	.	8dd\	-ie-
.	.	.	8d\	-li	.	.	.	8dd\	-li
!	!	!	!LO:LB:g=original	!	!	!	!	!	!
=21	=21	=21	=21	=21	=21	=21	=21	=21	=21
2G\	Du-	.	2d\	Du-	.	4b\	przy-	2gg\	Du-
.	.	.	.	.	.	8b\	-ie-	.	.
.	.	.	.	.	.	8b\	-li	.	.
!	!	!	!	!	!	!LO:LB:g=original	!	!	!
4B\	-cha	.	4d#X\	-cha	.	4a\	Du-	2ff#X\	-cha
4B\	swię-	.	4d#\	swię-	.	8a\	-cha	.	.
.	.	.	.	.	.	8a\	swię-	.	.
=22	=22	=22	=22	=22	=22	=22	=22	=22	=22
4E\	-te-	.	4e\	-te-	.	2g\	-te-	4ee\	w_o-
4E\	-go	.	4e\	-go	.	.	.	4ee\	-gniu
4E\	z_Nie-	.	4e\	z_Nie-	.	4g\	-go,	4b\	ze-
4E\	-ba	.	4B\	-ba	.	8b\	z_Nie-	4b\	-sła-
.	.	.	.	.	.	8b\	-ba	.	.
=23	=23	=23	=23	=23	=23	=23	=23	=23	=23
2E\	ze-	.	4B\	w_O-	.	2g\	ze-	2ee\	-ne-
.	.	.	4B\	-gniu	.	.	.	.	.
2G\	-sła-	.	4B\	ze-	.	2f\	-sła-	2dd\	-go
.	.	.	4B\	-sła-	.	.	.	.	.
=24	=24	=24	=24	=24	=24	=24	=24	=24	=24
4C/	-ne-	.	4c\	-ne-	.	4e\	-ne-	2cc\	Du-
4C/	-go	.	4c\	-go,	.	4e\	-go,	.	.
8G\	przy-	.	4G/	przy-	.	4g\	Du-	4g\	-cha
4G\	-ię-	.	.	.	.	.	.	.	.
.	.	.	8G/	-ie-	.	4g\	-cha	4g\	swię-
8G\	-li	.	8G/	-li	.	.	.	.	.
!LO:LB:g=original	!	!	!	!	!	!	!	!LO:LB:g=original	!
=25	=25	=25	=25	=25	=25	=25	=25	=25	=25
2C/	Du-	.	2e\	du-	.	4g\	z_Nie-	4cc\	-te-
.	.	.	.	.	.	4g\	-ba	4cc\	-go
4E\	-cha	.	4d\	-cha	.	4g#X\	Swię-	4b\	z_Nie-
4E\	swię-	.	4d\	swię-	.	8g#\	-te-	4b\	-ba
.	.	.	.	.	.	8g#\	-go	.	.
=26	=26	=26	=26	=26	=26	=26	=26	=26	=26
4A\	-te-	.	4c\	-te-	.	4a\	w_O-	2a\	z_Nie-
4A\	-go	.	4c\	-go	.	4a\	-gniu	.	.
!	!	!	!LO:LB:g=original	!	!	!LO:LB:g=original	!	!	!
4A\	z_Nie-	.	4c\	z_Nie-	.	4e\	ze-	4a\	.
4E\	-ba	.	4G#X/	-ba	.	4e\	-sła-	4b\	-ba
=27	=27	=27	=27	=27	=27	=27	=27	=27	=27
2A\	ze-	.	2A\	z_Nie-	.	2e\	-ne-	4cc\	w_O-
.	.	.	.	.	.	.	.	4cc\	-gniu
2F#X\	-sła-	.	2A\	-ba	.	2a\	-go,	4dd\	ze-
.	.	.	.	.	.	.	.	4dd\	-sła-
=28	=28	=28	=28	=28	=28	=28	=28	=28	=28
4G\	-ne-	.	4d\	w_O-	.	2g\	z_Nie-	4b\	-ne-
4E\	-go	.	4c\	-gniu	.	.	.	4cc\	-go
4D/	z_Nie-	.	4B\	ze-	.	2g\	-ba	4dd\	z_Nie-
4C/	-ba	.	4c\	-sła-	.	.	.	4ee\	-ba
=29	=29	=29	=29	=29	=29	=29	=29	=29	=29
2D\	ze-	.	4A\	-ne-	.	2f#X\	ze-	(>4dd\	ze-
.	.	.	4A\	-go	.	.	.	4cc\)	.
2E\	-sła-	.	4G/	z_Nie-	.	2g\	-sła-	2b\	-sła-
.	.	.	4G/	-ba	.	.	.	.	.
=30	=30	=30	=30	=30	=30	=30	=30	=30	=30
(<2C/	-ne-	.	4e\	ze-	.	(>2g\	-ne-	1a	-ne-
.	.	.	4e\	-sła-	.	.	.	.	.
2D/)	.	.	(>4d\	-ne-	.	2f#X\)	.	.	.
.	.	.	4c\)	.	.	.	.	.	.
=31	=31	=31	=31	=31	=31	=31	=31	=31	=31
2GG/	-go.	.	2B\	-go	.	2g\	-go.	2g\	-go
2r	.	.	2r	.	.	2r	.	2r	.
!LO:LB:g=original	!	!	!LO:LB:g=original	!	!	!	!	!LO:LB:g=original	!
=32	=32	=32	=32	=32	=32	=32	=32	=32	=32
!LO:TX:a:t=3.	!	!	!	!	!	!	!	!LO:TX:a:t=2.	!
0r	.	.	4.G/	wier-	.	1r	.	0r	.
.	.	.	8G/	-na	.	.	.	.	.
!	!	!	!	!	!	!LO:TX:a:t=i.	!	!	!
.	.	.	4G/	Pan-	.	.	.	.	.
.	.	.	8A\L	-ska	.	.	.	.	.
.	.	.	8B\J	.	.	.	.	.	.
!	!	!	!	!	!	!LO:LB:g=original	!	!	!
=33	=33	=33	=33	=33	=33	=33	=33	=33	=33
.	.	.	4c\	slu-	.	4.d\	wier-	.	.
.	.	.	4c\	-że-	.	.	.	.	.
.	.	.	.	.	.	8d\	-na	.	.
.	.	.	4c\	-bni-	.	4d\	Pan-	.	.
.	.	.	4c\	-ca	.	8e\L	-ska	.	.
.	.	.	.	.	.	8f#X\J	.	.	.
=34	=34	=34	=34	=34	=34	=34	=34	=34	=34
1r	.	.	4B\	wier-	.	2.g\	słu-	4.g\	wier-
.	.	.	4B\	-na	.	.	.	.	.
.	.	.	.	.	.	.	.	8g\	-na
.	.	.	4B\	Pan-	.	.	.	4g\	Pan-
.	.	.	8c\L	-ska	.	4fn\	-że-	8a\L	-ska
.	.	.	8d\J	.	.	.	.	8b\J	.
=35	=35	=35	=35	=35	=35	=35	=35	=35	=35
4.C/	słu-	.	4c\	słu-	.	4e\	-bni-	4cc\	słu-
.	.	.	4c\	-że-	.	4e\	-ca	4cc\	-że-
8C/	-że-	.	.	.	.	.	.	.	.
4C/	-bni-	.	4c\	-bni-	.	4e\	z_Li-	4cc\	-bni-
(>8D\L	-ca	.	4c\	-ca	.	8f\L	-ba-	4b-X\	-ca
8E\J)	.	.	.	.	.	8g\J	.	.	.
=36	=36	=36	=36	=36	=36	=36	=36	=36	=36
(>4F\	z_Li-	.	2c\	z_Li-	.	4f\	-nu	(>4a\	z_Li-
4E\)	.	.	.	.	.	4g\	ob-	4cc\)	.
4D/	-ba-	.	4d\	-ba-	.	4f\	-lu-	4bn\	-ba-
4C/	-nu	.	4e\	-nu	.	4g\	-bie-	4cc\	-nu
!	!	!	!LO:LB:g=original	!	!	!	!	!	!
=37	=37	=37	=37	=37	=37	=37	=37	=37	=37
(>2G\	ob-	.	(>2B\	ob-	.	2g\	-ni-	(>2dd\	ob-
2E\)	.	.	2c#X\)	.	.	2g\	-ca	2ee\)	.
=38	=38	=38	=38	=38	=38	=38	=38	=38	=38
(>4D\	-lu-	.	(>4d\	-lu-	.	4f\	Da-	(>4ff\	-lu-
4G\	.	.	4B\)	.	.	4g\	-wi-	4dd\)	.
!	!	!	!	!	!	!LO:LB:g=original	!	!	!
4C\)	.	.	4c\	.	.	4g\	-do-	4ee\	.
4E\	-bie-	.	4G/	-bie-	.	4g\	-wa	4cc\	-bie-
=39	=39	=39	=39	=39	=39	=39	=39	=39	=39
4G\	-ni-	.	4c\	-ni-	.	4g\	Pan-	4ee\	-ni-
4G\	-ca	.	4B\	-ca	.	4g\	-na	4dd\	-ca.
4G\	da-	.	2r	.	.	4g\	Swię-	2r	.
4G\	-wi-	.	.	.	.	4g\	-ta	.	.
!	!	!	!	!	!	!	!	!LO:LB:g=original	!
=40	=40	=40	=40	=40	=40	=40	=40	=40	=40
(>2.G\	-do-	.	4.B\	Da-	.	2.g\	od	4.dd\	Da-
.	.	.	8B\	-wi-	.	.	.	8dd\	-wi-
.	.	.	4B\	-do-	.	.	.	4dd\	-do-
4G\)	-wa	.	4B\	-wa	.	4g\	a-	4dd\	-wa
!LO:LB:g=original	!	!	!	!	!	!	!	!	!
=41	=41	=41	=41	=41	=41	=41	=41	=41	=41
4G\	Pan-	.	4B\	Pan-	.	4g\	-nio-	4dd\	Pan-
4G\	-na	.	4d\	-na	.	4g\	-łow	4b\	-na
4G\	Swię-	.	2r	.	.	4g\	w_Nie-	2r	.
4G\	-ta	.	.	.	.	4g\	-bo	.	.
=42	=42	=42	=42	=42	=42	=42	=42	=42	=42
2.G\	od	.	4.B\	Swię-	.	2.g\	wzię-	4.dd\	Swię-
.	.	.	8B\	-ta	.	.	.	8dd\	-ta
.	.	.	4B\	od	.	.	.	4dd\	od
4G\	A-	.	4d\	A-	.	4g\	-ta	4dd\	a-
!	!	!	!LO:LB:g=original	!	!	!	!	!	!
=43	=43	=43	=43	=43	=43	=43	=43	=43	=43
4G\	-nio-	.	4B\	-nio-	.	4g\	od	4dd\	-nio-
4G\	-łow	.	4d\	-łow	.	4g\	a-	4b\	-łow
!LO:TX:t=P:problem=niejednoznaczny rozkład sylab ["w Niebo wzięta" / "w Niebowzięta" / "wNiebowzięta"]	!	!	!	!	!	!	!	!	!
4G\	w_Nie-	.	2r	.	.	4g\	-nio-	2r	.
4G\	-bo	.	.	.	.	4g\	-łow	.	.
!	!	!	!	!	!	!LO:LB:g=original	!	!	!
=44	=44	=44	=44	=44	=44	=44	=44	=44	=44
4G\	wzię-	.	4.d\	w_Nie-	.	2g\	w_Nie-	2ff 2dd\	w_Nie-
4GG/	-ta	.	.	.	.	.	.	.	.
.	.	.	8d\	-bo	.	.	.	.	.
!LO:TX:t=P:problem=niejednoznaczny rozkład sylab ["w Niebo wzięta" / "w Niebowzięta" / "wNiebowzięta"]	!	!	!	!	!	!	!	!	!
4G\	w_Nie-	.	4d\	w_Nie-	.	2g\	-bo	2ff 2dd\	-bo
4G\	-bo	.	4d\	-bo	.	.	.	.	.
=45	=45	=45	=45	=45	=45	=45	=45	=45	=45
4G\	wzię-	.	4d\	wzię-	.	4g\	wzię-	4ff 4dd\	wzię-
4G\	-ta	.	4B\	-ta	.	4g\	-ta	4dd\	-ta
4r	.	.	4r	.	.	4r	.	4r	.
4G\	nie-	.	4G/	Nie-	.	4g\	Nie-	4g\	nie-
!	!	!	!	!	!	!	!	!LO:LB:g=original	!
=46	=46	=46	=46	=46	=46	=46	=46	=46	=46
4c\	-bie-	.	4e\	-bie-	.	4g\	-bie-	4cc\	-bie-
4c\	-skich	.	4e\	-skich	.	4g\	-skich	4cc\	-skich
!LO:LB:g=original	!	!	!	!	!	!	!	!	!
4c\	mo-	.	4e\	Mo-	.	4g\	Mo-	4cc\	mo-
8c\	-cy	.	4e\	-cy	.	4g\	-cy	4cc\	-cy
8c\	Rząd	.	.	.	.	.	.	.	.
=47	=47	=47	=47	=47	=47	=47	=47	=47	=47
2c\	czy-	.	2g\	Rząd-	.	2cc\	Rząd-	2ee\	Rząd-
4c\	-ni,	.	8e\	-czy-	.	4g\	-czy-	4cc\	-czy-
.	.	.	8e\	-ni	.	.	.	.	.
8c\	wszy-	.	8e\	wszy-	.	4g\	-ni	4cc\	-ni
8c\	-stkich	.	8e\	-stkich	.	.	.	.	.
!	!	!	!LO:LB:g=original	!	!	!	!	!	!
=48	=48	=48	=48	=48	=48	=48	=48	=48	=48
4B-X\	Lu-	.	4e\	Lu-	.	4g\	Lu-	4cc\	Lu-
4B-\	-dow	.	4e\	-dow	.	4g\	-dow	4cc\	-dow
4B-\	Mo-	.	4e\	Mo-	.	4g\	mo-	4cc\	Mo-
4B-\	-nar-	.	4e\	-nar-	.	4g\	-nar-	4cc\	-nar-
=49	=49	=49	=49	=49	=49	=49	=49	=49	=49
4B-X\	-chi-	.	4c\	-chi-	.	2.g\	-chi-	2ee\	-chi-
4B-\	-ni	.	4c\	-ni	.	.	.	.	.
8B-\	ra-	.	8c\	ra-	.	.	.	4cc\	-ni.
8B-\	-do-	.	8c\	-do-	.	.	.	.	.
8B-\	-sci	.	8c\	-sci	.	4g\	-ni	8cc\	na-
8B-\	na-	.	8c\	na-	.	.	.	8cc\	-sza
!	!	!	!	!	!	!LO:LB:g=original	!	!	!
=50	=50	=50	=50	=50	=50	=50	=50	=50	=50
2A\	-szey	.	2c\	-szey	.	2f\	ie-	2ff\	na-
2G\	przy-	.	4c#X\	przy-	.	2b-X\	-dna	4ee\	-sza
.	.	.	4c#\	-czy-	.	.	.	4ee\	przy-
!LO:LB:g=original	!	!	!	!	!	!	!	!	!
=51	=51	=51	=51	=51	=51	=51	=51	=51	=51
4F\	-czy-	.	2d\	-na,	.	2a\	nam	4dd\	-czy-
4F\	-na	.	.	.	.	.	.	4dd\	-na
!	!	!	!	!	!	!	!	!LO:LB:g=original	!
4E\	ie-	.	4e\	ie-	.	4g\	Ła-	4cc#X\	ie-
8E\	-dna	.	4e\	-dna	.	4g\	-ski	4cc#\	-dna
8E\	nam	.	.	.	.	.	.	.	.
=52	=52	=52	=52	=52	=52	=52	=52	=52	=52
!	!	!	!	!	!	!LO:TX:t=P:problem=w źródle brak tego taktu; dodano, żeby zgadzały się piony brzmieniowe	!	!	!
2F\	Ła-	.	4d\	nam	.	1ryy	.	2dd\	nam
.	.	.	4d\	Ła-	.	.	.	.	.
4F#X\	-ske	.	4e-X\	-ske	.	.	.	4ccn\	Ła-
4F#\	u	.	4e-\	u	.	.	.	4cc\	-ski
!	!	!	!LO:LB:g=original	!	!	!	!	!	!
=53	=53	=53	=53	=53	=53	=53	=53	=53	=53
(>2G\	Sy-	.	2en\	Sy-	.	2.g\	ie-	2cc\	u
2GG/)	.	.	2d\	.	.	.	.	4b\	swe-
.	.	.	.	.	.	4f\	-dna	4b\	-go
=54	=54	=54	=54	=54	=54	=54	=54	=54	=54
!	!	!	!	!	!	!LO:TX:t=P:problem=w źródle brak tego taktu; dodano, żeby zgadzały się piony brzmieniowe	!	!	!
2C/	-na	.	2c\	-na	.	1ryy	.	4cc\	Sy-
.	.	.	.	.	.	.	.	4cc\	-na
2r	.	.	2r	.	.	.	.	2r	.
=55	=55	=55	=55	=55	=55	=55	=55	=55	=55
2G\	ie-	.	2B\	ie-	.	2g\	nam	2dd\	ie-
2G\	-dna	.	2B\	-dna	.	2g\	Ła-	2dd\	-dna
=56	=56	=56	=56	=56	=56	=56	=56	=56	=56
2c\	nam	.	2c\	nam	.	2g\	-ski	2ee\	nam.
2r	.	.	2r	.	.	2r	.	2r	.
!LO:LB:g=original	!	!	!	!	!	!	!	!	!
=57	=57	=57	=57	=57	=57	=57	=57	=57	=57
2G\	Ła-	.	2d\	Ła-	.	2g\	u	2b\	Ła-
4G\	-ske	.	4d\	-ske	.	4g\	swe-	4b\	-ski
4G\	u	.	4d\	u	.	4g\	-go	4b\	u
!	!	!	!	!	!	!	!	!LO:LB:g=original	!
=58	=58	=58	=58	=58	=58	=58	=58	=58	=58
4C/	Sy-	.	4e\	Sy-	.	4g\	sy-	4cc\	swe-
4C/	-na	.	4e\	-na	.	4g\	-na	4cc\	-go
2r	.	.	2r	.	.	2r	.	2r	.
!	!	!	!	!	!	!LO:LB:g=original	!	!	!
=59	=59	=59	=59	=59	=59	=59	=59	=59	=59
1F	Ła-	.	1c	Ła-	.	1a	u	1ff	u
!	!	!	!LO:LB:g=original	!	!	!	!	!	!
=60	=60	=60	=60	=60	=60	=60	=60	=60	=60
2A\	-ske	.	2c\	-ske	.	2a\	swe-	2ff\	swe-
2A\	u	.	2c\	u	.	2a\	-go	2ff\	-go
=61	=61	=61	=61	=61	=61	=61	=61	=61	=61
1F	Sy-	.	1c	Sy-	.	1a	Sy-	1ff	Sy-
=62	=62	=62	=62	=62	=62	=62	=62	=62	=62
1C;	-na.	.	1c;	-na	.	2.g;\	-na.	1ee	-na.
!	!	!	!	!	!	!LO:N:vis=2	!	!	!
.	.	.	.	.	.	4rA	.	.	.
==	==	==	==	==	==	==	==	==	==
*-	*-	*-	*-	*-	*-	*-	*-	*-	*-
!!!system-decoration: [(s1,s2,s3,s4)]
!!!RDF**kern: > = above
!!!RDF**kern: < = below
!!!EED: Antoni Szymański
!!!EEV: 2021-01-07
!!!ENC: Andrzej Kubiczek
!!!END: 2021-01-03
